Numix-Circle/48x48/apps/dolphin.svg

<?xml version="1.0" encoding="UTF-8" standalone="no"?>
<svg
   xmlns:dc="http://purl.org/dc/elements/1.1/"
   xmlns:cc="http://creativecommons.org/ns#"
   xmlns:rdf="http://www.w3.org/1999/02/22-rdf-syntax-ns#"
   xmlns:svg="http://www.w3.org/2000/svg"
   xmlns="http://www.w3.org/2000/svg"
   xmlns:xlink="http://www.w3.org/1999/xlink"
   xmlns:sodipodi="http://sodipodi.sourceforge.net/DTD/sodipodi-0.dtd"
   xmlns:inkscape="http://www.inkscape.org/namespaces/inkscape"
   width="48"
   viewBox="0 0 13.546667 13.546667"
   height="48"
   id="svg2"
   version="1.1"
   inkscape:version="0.91 r13725"
   sodipodi:docname="dolphin.svg">
  <metadata
     id="metadata331">
    <rdf:RDF>
      <cc:Work
         rdf:about="">
        <dc:format>image/svg+xml</dc:format>
        <dc:type
           rdf:resource="http://purl.org/dc/dcmitype/StillImage" />
        <dc:title />
      </cc:Work>
    </rdf:RDF>
  </metadata>
  <sodipodi:namedview
     pagecolor="#ffffff"
     bordercolor="#666666"
     borderopacity="1"
     objecttolerance="10"
     gridtolerance="10"
     guidetolerance="10"
     inkscape:pageopacity="0"
     inkscape:pageshadow="2"
     inkscape:window-width="1280"
     inkscape:window-height="998"
     id="namedview329"
     showgrid="true"
     inkscape:zoom="12.118768"
     inkscape:cx="27.182104"
     inkscape:cy="31.492059"
     inkscape:window-x="0"
     inkscape:window-y="0"
     inkscape:window-maximized="1"
     inkscape:current-layer="layer3"
     showguides="true"
     inkscape:guide-bbox="true">
    <inkscape:grid
       type="xygrid"
       id="grid3308" />
  </sodipodi:namedview>
  <defs
     id="defs4">
    <linearGradient
       id="linearGradient4140">
      <stop
         style="stop-color:#2684da;stop-opacity:1;"
         offset="0"
         id="stop4143" />
      <stop
         style="stop-color:#3f96e5;stop-opacity:1;"
         offset="1"
         id="stop4145" />
    </linearGradient>
    <linearGradient
       inkscape:collect="always"
       xlink:href="#linearGradient4140"
       id="linearGradient4147"
       x1="-27"
       y1="13"
       x2="-24"
       y2="13"
       gradientUnits="userSpaceOnUse" />
  </defs>
  <g
     inkscape:groupmode="layer"
     id="layer1"
     inkscape:label="Shadow"
     sodipodi:insensitive="true">
    <path
       style="opacity:0.05;fill:#000000;fill-opacity:1;stroke:none"
       d="M 25,2 C 12.297451,2 2,12.297451 2,25 2,31.367153 4.6007106,37.116628 8.78125,41.28125 12.865755,44.99361 18.29568,47.25 24.25,47.25 c 12.702549,0 23,-10.297451 23,-23 0,-5.95432 -2.25639,-11.384245 -5.96875,-15.46875 C 37.116628,4.6007105 31.367153,2 25,2 z M 41.28125,8.78125 C 45.135604,12.894061 47.5,18.418655 47.5,24.5 c 0,12.702549 -10.297451,23 -23,23 C 18.418655,47.5 12.894061,45.135604 8.78125,41.28125 12.940939,45.4251 18.664604,48 25,48 37.702549,48 48,37.702549 48,25 48,18.664604 45.4251,12.940939 41.28125,8.78125 z"
       transform="scale(0.28222223,0.28222223)"
       id="path3978"
       inkscape:connector-curvature="0" />
    <path
       style="opacity:0.1;fill:#000000;fill-opacity:1;stroke:none"
       d="M 41.28125,8.78125 C 44.99361,12.865755 47.25,18.29568 47.25,24.25 c 0,12.702549 -10.297451,23 -23,23 -5.95432,0 -11.384245,-2.25639 -15.46875,-5.96875 C 12.894061,45.135604 18.418655,47.5 24.5,47.5 c 12.702549,0 23,-10.297451 23,-23 0,-6.081345 -2.364396,-11.605939 -6.21875,-15.71875 z"
       transform="scale(0.28222223,0.28222223)"
       id="path3976"
       inkscape:connector-curvature="0" />
    <path
       transform="matrix(4.3274074,0,0,3.2455556,117.19278,-35.348334)"
       d="m -24,13 a 1.5,2 0 1 1 -3,0 1.5,2 0 1 1 3,0 z"
       sodipodi:ry="2"
       sodipodi:rx="1.5"
       sodipodi:cy="13"
       sodipodi:cx="-25.5"
       id="path3952"
       style="opacity:0.2;fill:#000000;fill-opacity:1;stroke:none"
       sodipodi:type="arc" />
  </g>
  <g
     inkscape:groupmode="layer"
     id="layer2"
     inkscape:label="Base">
    <path
       sodipodi:type="arc"
       style="fill:url(#linearGradient4147);fill-opacity:1;stroke:none"
       id="path3942"
       sodipodi:cx="-25.5"
       sodipodi:cy="13"
       sodipodi:rx="1.5"
       sodipodi:ry="2"
       d="m -24,13 a 1.5,2 0 1 1 -3,0 1.5,2 0 1 1 3,0 z"
       transform="matrix(0,-4.3274075,3.2455556,0,-35.429918,-103.60974)" />
    <path
       style="opacity:0.1;fill:#000000;fill-opacity:1;stroke:none"
       d="M 40.03125 7.53125 C 43.74361 11.615755 46 17.04568 46 23 C 46 35.702549 35.702549 46 23 46 C 17.04568 46 11.615755 43.74361 7.53125 40.03125 C 11.709416 44.322508 17.537578 47 24 47 C 36.702549 47 47 36.702549 47 24 C 47 17.537578 44.322508 11.709416 40.03125 7.53125 z "
       transform="scale(0.28222223,0.28222223)"
       id="path4027" />
  </g>
  <g
     inkscape:groupmode="layer"
     id="layer3"
     inkscape:label="Symbol">
    <g
       id="g3457"
       style="opacity:0.1;fill:#000000;fill-opacity:1"
       transform="translate(0.28222231,0.56444449)">
      <path
         sodipodi:nodetypes="ccccccccc"
         inkscape:connector-curvature="0"
         id="path3453"
         d="m 3.3866667,4.2333334 0,3.9511112 6.4911116,0 0,-1.9755556 -0.282222,-1.6933334 -2.5400006,0 -0.2822222,-0.5644444 -3.1044446,0 c -0.1411111,0 -0.2822222,0.1411111 -0.2822222,0.2822222 z"
         style="fill:#000000;fill-opacity:1;stroke:none" />
      <path
         style="fill:#000000;fill-opacity:1;stroke:none"
         d="m 10.16,4.8166021 0,4.2145092 -6.7733333,0 0,-3.9511112 3.3866668,0 0.2822223,-0.5644445 2.8222225,0 c 0.1411107,0 0.2822217,0.1505091 0.2822217,0.3010465 z"
         id="path3455"
         inkscape:connector-curvature="0"
         sodipodi:nodetypes="cccccccc" />
    </g>
    <path
       sodipodi:nodetypes="ccccccccc"
       inkscape:connector-curvature="0"
       id="path3029"
       d="m 3.3866668,4.5155556 0,3.9511112 6.491112,0 0,-1.9755556 -0.2822224,-1.6933334 -2.5400006,0 -0.2822222,-0.5644444 -3.1044446,0 c -0.1411111,0 -0.2822222,0.1411111 -0.2822222,0.2822222 z"
       style="fill:#ff8f00;fill-opacity:1;stroke:none" />
    <rect
       style="fill:#fffdf0;fill-opacity:1;stroke:none"
       id="rect3799"
       width="3.104444"
       height="1.1288817"
       x="3.9511113"
       y="5.0800004" />
    <path
       style="fill:#ffca28;fill-opacity:1;stroke:none"
       d="m 10.16,5.0988243 0,4.2145092 -6.7733332,0 0,-3.9511112 3.3866667,0 0.2822223,-0.5644445 2.8222229,0 c 0.1411103,0 0.2822213,0.1505091 0.2822213,0.3010465 z"
       id="rect2987"
       inkscape:connector-curvature="0"
       sodipodi:nodetypes="cccccccc" />
    <path
       style="fill:none;stroke:none"
       d="m 6.7733335,4.9388889 -0.7055555,0.4233334 0.4233334,0 z"
       id="path3801"
       inkscape:connector-curvature="0" />
    <path
       style="opacity:0.6;fill:#6a6034;fill-opacity:1;fill-rule:nonzero;stroke:none"
       inkscape:connector-curvature="0"
       id="path77"
       d="m 7.3896144,5.8535403 c -0.013265,0 -0.022002,0.00339 -0.02878,0.014393 C 7.3255664,5.9297403 7.3949724,6.1304 7.3422103,6.2351044 7.2903048,6.3398092 7.2903048,6.3663381 6.8716329,6.3144094 6.4529608,6.2624803 5.8246697,6.4456425 5.598688,6.6717025 5.3693208,6.8988914 4.9794248,7.4743426 4.8990192,7.8062359 4.8219993,8.1381292 4.8572649,8.155627 4.961933,8.1039803 5.0654726,8.0509226 5.1537777,7.5880781 5.7707838,7.2838425 6.3911755,6.9784781 6.6800709,7.2220359 6.6800709,7.2220359 c 0,0 -0.5334972,-0.070556 -0.9245218,0.2525889 -0.392435,0.3239911 -0.6370369,0.5754511 -0.6282911,0.6747933 0.00875,0.095956 0.042883,0.0762 0.1057967,0 0.060657,-0.079304 0.4265722,-0.5588 0.8630186,-0.7165622 C 6.5325199,7.2739648 6.7153365,7.2852537 6.8806614,7.3721779 7.0471148,7.4593849 7.08238,7.5440512 6.8476524,7.604729 6.6106679,7.667665 6.5147457,7.640007 6.5147457,7.640007 c 0,0 0.2005904,0.18288 0.4872289,0.18288 0.2886137,0 0.4640949,-0.01778 0.4640949,-0.01778 0,0 0.7140563,0.7419622 0.8982836,0.8906934 0.1819708,0.1476022 0.3845356,0.078175 0.3845356,-0.00988 0,-0.087207 -0.088309,-0.3318934 -0.088309,-0.3318934 0,0 0.1828167,-0.4111977 -0.027651,-0.8731955 C 8.423592,7.0177048 7.8483402,6.5393382 7.8483402,6.5393382 c 0,0 -0.060659,-0.2624667 -0.1907158,-0.4365978 C 7.551835,5.9616314 7.4449102,5.8546692 7.3898963,5.8524114 M 4.4188435,7.9668203 c -0.025391,0.00113 -0.051911,0.00762 -0.076174,0.022013 -0.2005905,0.1134532 -0.095922,0.3152422 0.079276,0.3152422 0.1740709,0 0.3659155,-0.070556 0.3659155,-0.070556 0,0 -0.1873308,-0.2734734 -0.3693009,-0.2655711 M 4.8042242,8.304075 c 0,0 -0.3913068,0.059549 -0.435318,0.2435579 -0.044012,0.1828798 0.1641965,0.2359376 0.2953842,0.1399821 0.1311879,-0.095956 0.1399338,-0.38354 0.1399338,-0.38354 m 0,0" />
  </g>
</svg>

<svg xmlns="http://www.w3.org/2000/svg" width="48" viewBox="0 0 13.546667 13.546667" height="48"><defs><linearGradient id="linearGradient4147" x1="-27" x2="-24" gradientUnits="userSpaceOnUse"><stop stop-color="#2684da" stop-opacity="1"/><stop offset="1" stop-color="#3f96e5" stop-opacity="1"/></linearGradient></defs><g><path d="m 25 2 c -12.703 0 -23 10.297 -23 23 0 6.367 2.601 12.12 6.781 16.281 4.085 3.712 9.514 5.969 15.469 5.969 c 12.703 0 23 -10.297 23 -23 0 -5.954 -2.256 -11.384 -5.969 -15.469 c -4.165 -4.181 -9.914 -6.781 -16.281 -6.781 z m 16.281 6.781 c 3.854 4.113 6.219 9.637 6.219 15.719 c 0 12.703 -10.297 23 -23 23 c -6.081 0 -11.606 -2.364 -15.719 -6.219 4.16 4.144 9.883 6.719 16.219 6.719 12.703 0 23 -10.297 23 -23 0 -6.335 -2.575 -12.06 -6.719 -16.219 z" transform="scale(0.28222223,0.28222223)" opacity="0.05" fill="#000" stroke="none" fill-opacity="1"/><path d="m 41.28 8.781 c 3.712 4.085 5.969 9.514 5.969 15.469 c 0 12.703 -10.297 23 -23 23 -5.954 0 -11.384 -2.256 -15.469 -5.969 c 4.113 3.854 9.637 6.219 15.719 6.219 c 12.703 0 23 -10.297 23 -23 0 -6.081 -2.364 -11.606 -6.219 -15.719 z" transform="scale(0.28222223,0.28222223)" opacity="0.1" fill="#000" stroke="none" fill-opacity="1"/><path transform="matrix(4.3274074,0,0,3.2455556,117.19278,-35.348334)" d="m -24 13 a 1.5 2 0 1 1 -3 0 1.5 2 0 1 1 3 0 z" opacity="0.2" fill="#000" stroke="none" fill-opacity="1"/></g><g><path d="m -24 13 a 1.5 2 0 1 1 -3 0 1.5 2 0 1 1 3 0 z" transform="matrix(0,-4.3274075,3.2455556,0,-35.429918,-103.60974)" fill="url(#linearGradient4147)" stroke="none" fill-opacity="1"/><path d="m 40.03 7.531 c 3.712 4.085 5.969 9.514 5.969 15.469 c 0 12.703 -10.297 23 -23 23 c -5.954 0 -11.384 -2.256 -15.469 -5.969 c 4.178 4.291 10.01 6.969 16.469 6.969 c 12.703 0 23 -10.297 23 -23 c 0 -6.462 -2.677 -12.291 -6.969 -16.469 z" transform="scale(0.28222223,0.28222223)" opacity="0.1" fill="#000" stroke="none" fill-opacity="1"/></g><g><g transform="translate(0.28222231,0.56444449)" opacity="0.1" fill="#000" fill-opacity="1"><path d="m 14 16 c -0.5 0 -1 0.5 -1 1 0 5.798 0 11.966 0 17 l 24 0 0 -14.934 c 0 -0.533 -0.5 -1.066 -1 -1.066 c -3.333 0 -6.667 0 -10 0 l -1 -2 z" transform="matrix(0.28222223,0,0,0.28222223,-0.28222231,-0.56444449)" fill="#000" stroke="none"/></g><g><path d="m 3.387 4.516 0 3.951 6.491 0 0 -1.976 -0.282 -1.693 -2.54 0 -0.282 -0.564 -3.104 0 c -0.141 0 -0.282 0.141 -0.282 0.282 z" fill="#ff8f00" stroke="none" fill-opacity="1"/><rect y="5.08" x="3.951" height="1.129" width="3.104" fill="#fffdf0" stroke="none" fill-opacity="1"/><path d="m 10.16 5.099 0 4.215 -6.773 0 0 -3.951 3.387 0 0.282 -0.564 2.822 0 c 0.141 0 0.282 0.151 0.282 0.301 z" fill="#ffca28" stroke="none" fill-opacity="1"/><path d="m 7.39 5.854 c -0.013 0 -0.022 0.003 -0.029 0.014 c -0.035 0.062 0.034 0.262 -0.019 0.367 -0.052 0.105 -0.052 0.131 -0.471 0.079 -0.969 -0.017 -1.724 0.568 -1.973 1.492 -0.077 0.332 -0.042 0.349 0.063 0.298 0.104 -0.053 0.192 -0.516 0.809 -0.82 0.62 -0.305 0.909 -0.062 0.909 -0.062 c 0 0 -0.533 -0.071 -0.925 0.253 -0.392 0.324 -0.637 0.575 -0.628 0.675 0.009 0.096 0.043 0.076 0.106 0 0.061 -0.079 0.427 -0.559 0.863 -0.717 c 0.436 -0.159 0.619 -0.148 0.785 -0.061 0.166 0.087 0.202 0.172 -0.033 0.233 -0.237 0.063 -0.333 0.035 -0.333 0.035 c 0 0 0.201 0.183 0.487 0.183 0.289 0 0.464 -0.018 0.464 -0.018 0 0 0.714 0.742 0.898 0.891 0.182 0.148 0.385 0.078 0.385 -0.001 0 -0.087 -0.088 -0.332 -0.088 -0.332 0 0 0.183 -0.411 -0.028 -0.873 c -0.209 -0.463 -0.785 -0.941 -0.785 -0.941 c 0 0 -0.061 -0.262 -0.191 -0.437 c -0.106 -0.141 -0.213 -0.248 -0.268 -0.25 m -2.971 2.114 c -0.025 0.0001 -0.052 0.008 -0.076 0.022 -0.201 0.113 -0.096 0.315 0.079 0.315 0.174 0 0.366 -0.071 0.366 -0.071 0 0 -0.187 -0.273 -0.369 -0.266 m 0.386 0.336 c 0 0 -0.391 0.06 -0.435 0.244 -0.044 0.183 0.164 0.236 0.295 0.14 0.131 -0.096 0.14 -0.384 0.14 -0.384" opacity="0.6" fill="#6a6034" fill-rule="nonzero" stroke="none" fill-opacity="1"/></g></g></svg>
